X:268
T:Henrietta’s Favourite TS.268
M:6/8
L:1/8
Q:3/8=100
S:Thomas Sands’ MS,1810,Lincolnshire
R:jig
C:’By Mr Clark 1840′
C:In different hand C
O:England;Lincolnshire
Z:vmp.Ruairidh Greig, 2011
K:C
(e/f/)|gea gea|g2fe2c|Ade fed|c3B2(e/f/)|
gea gea|g3gfe|edc BAB|c3c2:|
|:B/c/|d^cd gab|d^c=cA2c|Bdg eag|g3f2e|
d^cd edc|Bcd efg|fed cBA|G3G2||
G,|DDD DG,D|EEE ECE|GGG GEG|cGE DG,D|
CCC CG,C|EEE ECE|GAG FED|C3″D.C.”C2|]

